X:360
T:John Angus
R:Reel
B:The Athole Collection
M:C|
L:1/8
K:E
EBGB EBeg|bgfe fcce|EBGB EBeg|bgfg e/e/e e2:|
e/f/g/a/ be gebe|dBfB aBfB|e/f/g/a/ be gebe|cagf e/e/e e2|
e/f/g/a/ be gebe|dBfB aBfB|egfa gbag|f>e f<g e/e/e e2||

